symbols/web/directions_railway/materialsymbolsrounded/directions_railway_grad200fill1_20px.svg

<svg xmlns="http://www.w3.org/2000/svg" height="20" width="20"><path d="M4.833 17.333q0-.166.094-.333t.219-.25l.979-.625q-1.292 0-2.187-.896-.896-.896-.896-2.187V4.875q0-1.854 1.677-2.719Q6.396 1.292 10 1.292q3.729 0 5.344.833 1.614.833 1.614 2.75v8.167q0 1.291-.896 2.187-.895.896-2.187.896l.979.625q.125.083.219.25.094.167.094.333 0 .25-.167.417-.167.167-.417.167H5.417q-.25 0-.417-.167-.167-.167-.167-.417ZM5 7.979h10V5.917H5Zm5 5.417q.583 0 .979-.396t.396-.979q0-.583-.396-.979T10 10.646q-.583 0-.979.396t-.396.979q0 .583.396.979t.979.396Z"/></svg>

<svg xmlns="http://www.w3.org/2000/svg" height="20" width="20"><path d="M4.833 17.333Q4.833 17.167 4.927 17Q5.021 16.833 5.146 16.75L6.125 16.125Q4.833 16.125 3.938 15.229Q3.042 14.333 3.042 13.042V4.875Q3.042 3.021 4.719 2.156Q6.396 1.292 10 1.292Q13.729 1.292 15.344 2.125Q16.958 2.958 16.958 4.875V13.042Q16.958 14.333 16.062 15.229Q15.167 16.125 13.875 16.125L14.854 16.75Q14.979 16.833 15.073 17Q15.167 17.167 15.167 17.333Q15.167 17.583 15 17.75Q14.833 17.917 14.583 17.917H5.417Q5.167 17.917 5 17.75Q4.833 17.583 4.833 17.333ZM5 7.979H15V5.917H5ZM10 13.396Q10.583 13.396 10.979 13Q11.375 12.604 11.375 12.021Q11.375 11.438 10.979 11.042Q10.583 10.646 10 10.646Q9.417 10.646 9.021 11.042Q8.625 11.438 8.625 12.021Q8.625 12.604 9.021 13Q9.417 13.396 10 13.396Z"/></svg>
